app/dist/common/images/atea-pharmaceuticals.svg

<svg height="18" width="18" xmlns="http://www.w3.org/2000/svg" xmlns:xlink="http://www.w3.org/1999/xlink"><linearGradient id="a" gradientUnits="userSpaceOnUse" x1="3.35" x2="21.9" y1="3.12" y2="24.43"><stop offset="0" stop-color="#1a1e21"/><stop offset="1" stop-color="#06060a"/></linearGradient><path d="m0 0h18v18h-18z" fill="url(#a)"/><path d="m8.98 4.5-.58 2.18c.2-.02.72-.06 1.12 0zm3.53.91-1.61 1.66c.2.08.66.3.97.56zm-5.45 1.66-1.61-1.66.64 2.22c.31-.25.78-.48.97-.56zm-4.16.93 2.22.64c-.12.16-.41.58-.56.97l-1.67-1.61zm9.97.62 2.23-.62-1.67 1.6c-.14-.38-.43-.8-.56-.97zm3.13 2.88-2.24-.57c.01.12.03.33.03.57zm-11.76-.57-2.24.57h2.2zm9.21.57a4.45 4.45 0 0 0 -8.9 0h.64v-.17c0-2.01 1.7-3.65 3.81-3.65a3.74 3.74 0 0 1 3.81 3.82z" fill="#fed403"/><path d="m7 9.5h4l1 2h-6z" fill="#02e7a1" fill-opacity=".9"/></svg>

<!-- by TradingView --><svg xmlns="http://www.w3.org/2000/svg" width="18" height="18"><path fill="url(#aqaurkzlx)" d="M0 0h18v18H0z"/><path d="M8.98 4.5L8.4 6.68c.2-.02.72-.06 1.12 0L8.98 4.5zm3.53.91L10.9 7.07c.2.08.66.3.97.56l.64-2.22zM7.06 7.07L5.45 5.41l.64 2.22c.31-.25.78-.48.97-.56zM2.9 8l2.22.64c-.12.16-.41.58-.56.97L2.89 8zm9.97.62L15.1 8l-1.67 1.6c-.14-.38-.43-.8-.56-.97zM16 11.5l-2.24-.57c.01.12.03.33.03.57H16zm-11.76-.57L2 11.5h2.2l.04-.57zm9.21.57a4.45 4.45 0 00-8.9 0h.64v-.17c0-2.01 1.7-3.65 3.81-3.65a3.74 3.74 0 013.81 3.82h.64z" fill="#FED403"/><path d="M7 9.5h4l1 2H6l1-2z" fill="#02E7A1" fill-opacity=".9"/><defs><linearGradient id="aqaurkzlx" x1="3.35" y1="3.12" x2="21.9" y2="24.43" gradientUnits="userSpaceOnUse"><stop stop-color="#1A1E21"/><stop offset="1" stop-color="#06060A"/></linearGradient></defs></svg>
